Sources/FrostedUI/Resources/Icons.xcassets/quoteLeft32.imageset/quote-left-32.svg

<svg width="32" height="32" viewBox="0 0 32 32" fill="none" xmlns="http://www.w3.org/2000/svg" data-fui-icon="true">
  <path
    d="M10.2717 6.82874C10.7348 6.52781 11.3545 6.65874 11.6555 7.1217C11.9565 7.58478 11.8247 8.20453 11.3616 8.50549C9.2143 9.90102 7.49675 11.114 6.32837 12.7242C5.91661 13.2918 5.56575 13.9199 5.29419 14.6383C6.25995 13.9893 7.42802 13.611 8.67993 13.611C11.962 13.611 14.6662 16.2114 14.6663 19.4723C14.6663 22.7331 11.962 25.3336 8.67993 25.3336C5.40735 25.3336 2.70913 22.7482 2.6936 19.5006C2.51055 16.0282 3.26463 13.5417 4.70923 11.5504C6.12296 9.60194 8.14533 8.2107 10.2717 6.82874ZM24.9387 6.82874C25.4018 6.52779 26.0214 6.65867 26.3225 7.1217C26.6234 7.58478 26.4916 8.20453 26.0286 8.50549C23.8812 9.90103 22.1639 11.1141 20.9954 12.7242C20.5837 13.2917 20.2328 13.9199 19.9612 14.6383C20.9269 13.9894 22.0951 13.611 23.3469 13.611C26.6289 13.6111 29.3332 16.2115 29.3333 19.4723C29.3333 22.733 26.629 25.3335 23.3469 25.3336C20.0744 25.3336 17.3761 22.7482 17.3606 19.5006C17.1775 16.0281 17.9317 13.5417 19.3762 11.5504C20.79 9.60189 22.8123 8.21074 24.9387 6.82874Z"
    fill="currentColor"
  />
</svg>

<svg xmlns="http://www.w3.org/2000/svg" width="32" height="32" fill="none" data-fui-icon="true" viewBox="0 0 32 32"><path fill="currentColor" d="M10.272 6.829a1 1 0 1 1 1.09 1.676c-2.148 1.396-3.865 2.609-5.034 4.22a8.1 8.1 0 0 0-1.034 1.913 6.06 6.06 0 0 1 3.386-1.027c3.282 0 5.986 2.6 5.986 5.861s-2.704 5.862-5.986 5.862c-3.273 0-5.97-2.586-5.986-5.833-.183-3.473.57-5.96 2.015-7.95 1.414-1.95 3.436-3.34 5.563-4.722m14.667 0a1 1 0 1 1 1.09 1.676c-2.148 1.396-3.865 2.61-5.034 4.22a8.1 8.1 0 0 0-1.034 1.913 6.06 6.06 0 0 1 3.386-1.027c3.282 0 5.986 2.6 5.986 5.861s-2.704 5.861-5.986 5.862c-3.273 0-5.97-2.586-5.986-5.833-.184-3.473.57-5.96 2.015-7.95 1.414-1.95 3.436-3.34 5.563-4.722"/></svg>
